src/assets/icons/weeks,fancy,50.svg

<svg width="48" height="48" viewBox="0 0 48 48" fill="none" xmlns="http://www.w3.org/2000/svg">
<rect opacity="0.2" x="4" y="6" width="40" height="40" rx="4" fill="black"/>
<path d="M14.426 41.2784C18.96 41.2784 22.0424 38.3253 22.0325 34.2088C22.0424 30.3111 19.318 27.5071 15.649 27.5071C13.8592 27.5071 12.318 28.2528 11.6021 29.2571H11.4828L12.0098 24.1562H20.9089V20.6364H8.46005L7.49556 31.375L11.3237 32.0611C11.9501 31.2159 13.1632 30.6889 14.3663 30.6889C16.4146 30.6989 17.8862 32.1804 17.8862 34.3182C17.8862 36.4361 16.4444 37.8977 14.426 37.8977C12.7157 37.8977 11.3336 36.8239 11.2342 35.2429H7.05806C7.13761 38.7628 10.21 41.2784 14.426 41.2784ZM33.0197 41.4474C38.1404 41.4474 41.2328 37.5497 41.2427 30.8381C41.2527 24.1761 38.1206 20.358 33.0197 20.358C27.9089 20.358 24.8066 24.1662 24.7967 30.8381C24.7768 37.5298 27.889 41.4375 33.0197 41.4474ZM33.0197 37.8778C30.6831 37.8778 29.1717 35.5312 29.1816 30.8381C29.1916 26.2145 30.693 23.8878 33.0197 23.8878C35.3365 23.8878 36.8478 26.2145 36.8478 30.8381C36.8578 35.5312 35.3464 37.8778 33.0197 37.8778Z" fill="black"/>
<g opacity="0.4">
<path d="M10 4C10 2.89543 10.8954 2 12 2C13.1046 2 14 2.89543 14 4V8C14 9.10457 13.1046 10 12 10C10.8954 10 10 9.10457 10 8V4Z" fill="black"/>
<path d="M34 4C34 2.89543 34.8954 2 36 2C37.1046 2 38 2.89543 38 4V8C38 9.10457 37.1046 10 36 10C34.8954 10 34 9.10457 34 8V4Z" fill="black"/>
</g>
<path fill-rule="evenodd" clip-rule="evenodd" d="M10 6.00869C7.52043 6.04456 6.11466 6.22849 5.17157 7.17157C4 8.34315 4 10.2288 4 14V16H44V14C44 10.2288 44 8.34315 42.8284 7.17157C41.8853 6.22849 40.4796 6.04456 38 6.00869V8C38 9.10457 37.1046 10 36 10C34.8954 10 34 9.10457 34 8V6H14V8C14 9.10457 13.1046 10 12 10C10.8954 10 10 9.10457 10 8V6.00869Z" fill="black"/>
</svg>

<svg xmlns="http://www.w3.org/2000/svg" width="48" height="48" fill="none" viewBox="0 0 48 48">
  <rect width="40" height="40" x="4" y="6" fill="#000" opacity=".2" rx="4"/>
  <path fill="#000" d="M14.426 41.278c4.534 0 7.616-2.953 7.606-7.07.01-3.897-2.714-6.7-6.383-6.7-1.79 0-3.331.745-4.047 1.75h-.12l.528-5.102h8.899v-3.52H8.46l-.964 10.739 3.828.686c.626-.845 1.84-1.372 3.042-1.372 2.049.01 3.52 1.491 3.52 3.63 0 2.117-1.442 3.579-3.46 3.579-1.71 0-3.092-1.074-3.192-2.655H7.058c.08 3.52 3.152 6.035 7.368 6.035zm18.594.17c5.12 0 8.213-3.898 8.223-10.61.01-6.662-3.122-10.48-8.223-10.48-5.111 0-8.213 3.808-8.223 10.48-.02 6.692 3.092 10.6 8.223 10.61zm0-3.57c-2.337 0-3.848-2.347-3.838-7.04.01-4.623 1.511-6.95 3.838-6.95 2.316 0 3.828 2.326 3.828 6.95.01 4.693-1.502 7.04-3.828 7.04z"/>
  <g opacity=".4">
    <path fill="#000" d="M10 4a2 2 0 114 0v4a2 2 0 11-4 0V4zM34 4a2 2 0 114 0v4a2 2 0 11-4 0V4z"/>
  </g>
  <path fill="#000" fill-rule="evenodd" d="M10 6.009c-2.48.036-3.885.22-4.828 1.163C4 8.343 4 10.229 4 14v2h40v-2c0-3.771 0-5.657-1.172-6.828-.943-.944-2.348-1.127-4.828-1.163V8a2 2 0 11-4 0V6H14v2a2 2 0 11-4 0V6.009z" clip-rule="evenodd"/>
</svg>
